X: 6
T: Lea Rig, The
Z: Weejie
S: https://thesession.org/tunes/13977#setting25220
R: reel
M: 4/4
L: 1/8
K: Gmaj
B/A/|{GA} BD DE/F/ G>A GB|A>B c/B/A/G/ {GA} BE EB/A/|
{FA} GD DE/F/ G>A Gg/f/|e>d e/f/g/d/ BGG:|
|:d|(e/d/e/f/) gB (c/B/c/d/) eG|A>B c/B/A/G/ {GA} BE EB/A/|
{GA} BD DE/F/ G>A Gg/f/|e>d e/f/g/d/ BGG:|
|:e/f/|(g/d/).B/.d/ (e/d/).B/.d/ (g/d/).B/.d/ (e/d/).B/.d/|\
(g/f/).e/.d/ (c/B/).A/.G/ BA Ae/g/|
(g/d/).B/.d/ (e/d/).B/.d/ (g/d/).B/.d/ (e/d/).B/.d/|e>d e/f/g/d/ BGG:|
